X: 1155
T: Polska efter Timas Hans Hansson
R: Polska
Z: Håkan Lidén, 2009-02-05
O: Ore, Dalarna
S: efter Timas Hans Hansson
N: [[http://www.smus.se/earkiv/fmk/browselarge.php?lang=sw&katalogid=Dr+4&bildnr=00003|SMUS]]
M:3/4
L:1/8
K:Dm
Af |: ff/e/ ff fe/f/ | =b>a g3 e | ^c/A/c/e/ ge f/e/f/g/ |1 a>g f4 :|2 a>g f3 f ||
|: eg/e/ df/d/ ^cc | d/^c/d/f/ e/d/e/g/ ff | eg/e/ df/d/ ^cc | A/^c/e/c/ da ^ga |
eg/e/ df/d/ ^cc | d/^c/d/f/ e/d/e/g/ ff | eg/e/ df/d/ ^cc |1 A/^c/e/c/ d3 f :|2 A/^c/e/c/ d2 |]
(:musicend:)

(:music:)
